16x16/apps/regedit.svg

<svg xmlns="http://www.w3.org/2000/svg" width="16" height="16" version="1">
 <path style="fill:#259fb3" d="M 10.999,11 V 16 H 15.249 C 15.665,16 15.999,15.666 15.999,15.25 V 11 H 10.999 Z"/>
 <rect style="fill:#1e8496" width="5" height="5" x="6" y="11"/>
 <path style="fill:#186977" d="M 1,11 V 15.25 C 1,15.666 1.3345,16 1.75,16 H 6 V 11 Z"/>
 <rect style="fill:#4ca9ba" width="5" height="5" x="1" y="6"/>
 <rect style="fill:#6eb9c7" width="5" height="5" x="6" y="6"/>
 <rect style="fill:#90cad5" width="5" height="5" x="11" y="6"/>
 <path style="fill:#c5e6ec" d="M 11,1 V 6 H 16 V 1.75 C 16,1.3345 15.666,1 15.25,1 Z"/>
 <rect style="fill:#acdbe3" width="5" height="5" x="6" y="1"/>
 <path style="fill:#96d1dc" d="M 1.75,1 C 1.3345,1 1,1.3345 1,1.75 V 6 H 6 V 1 Z"/>
 <path style="fill:#f4f4f7" d="M 5.1429,5 H 6.8571 C 6.9363,5 7,5.0637 7,5.1429 V 6.8571 C 7,6.9363 6.9363,7 6.8571,7 H 5.1429 C 5.0637,7 5,6.9363 5,6.8571 V 5.1429 C 5,5.0637 5.0637,5 5.1429,5 Z"/>
 <path style="fill:#f4f4f7" d="M 10.143,5 H 11.857 C 11.936,5 12,5.0637 12,5.1429 V 6.8571 C 12,6.9363 11.936,7 11.857,7 H 10.143 C 10.064,7 10,6.9363 10,6.8571 V 5.1429 C 10,5.0637 10.064,5 10.143,5 Z"/>
 <path style="fill:#f4f4f7" d="M 5.1429,10 H 6.8571 C 6.9363,10 7,10.064 7,10.143 V 11.857 C 7,11.936 6.9363,12 6.8571,12 H 5.1429 C 5.0637,12 5,11.936 5,11.857 V 10.143 C 5,10.064 5.0637,10 5.1429,10 Z"/>
 <path style="fill:#f4f4f7" d="M 10.143,10 H 11.857 C 11.936,10 12,10.064 12,10.143 V 11.857 C 12,11.936 11.936,12 11.857,12 H 10.143 C 10.064,12 10,11.936 10,11.857 V 10.143 C 10,10.064 10.064,10 10.143,10 Z"/>
</svg>

<svg xmlns="http://www.w3.org/2000/svg" width="16" height="16" version="1"><path style="fill:#259fb3" d="M10.999 11v5h4.25c.416 0 .75-.334.75-.75V11h-5z"/><path style="fill:#1e8496" d="M6 11h5v5H6z"/><path style="fill:#186977" d="M1 11v4.25c0 .416.335.75.75.75H6v-5z"/><path style="fill:#4ca9ba" d="M1 6h5v5H1z"/><path style="fill:#6eb9c7" d="M6 6h5v5H6z"/><path style="fill:#90cad5" d="M11 6h5v5h-5z"/><path style="fill:#c5e6ec" d="M11 1v5h5V1.75a.748.748 0 0 0-.75-.75z"/><path style="fill:#acdbe3" d="M6 1h5v5H6z"/><path style="fill:#96d1dc" d="M1.75 1a.748.748 0 0 0-.75.75V6h5V1z"/><path style="fill:#f4f4f7" d="M5.143 5h1.714c.08 0 .143.064.143.143v1.714c0 .08-.064.143-.143.143H5.143A.143.143 0 0 1 5 6.857V5.143c0-.08.064-.143.143-.143zM10.143 5h1.714c.079 0 .143.064.143.143v1.714c0 .08-.064.143-.143.143h-1.714A.143.143 0 0 1 10 6.857V5.143c0-.08.064-.143.143-.143zM5.143 10h1.714c.08 0 .143.064.143.143v1.714a.143.143 0 0 1-.143.143H5.143A.143.143 0 0 1 5 11.857v-1.714c0-.079.064-.143.143-.143zM10.143 10h1.714c.079 0 .143.064.143.143v1.714a.143.143 0 0 1-.143.143h-1.714a.143.143 0 0 1-.143-.143v-1.714c0-.079.064-.143.143-.143z"/></svg>
